icons/24x24_mail_filled.svg

<svg xmlns="http://www.w3.org/2000/svg" width="24" height="24" viewBox="0 0 24 24">
  <path fill-rule="evenodd" d="M6,4 L18,4 C20.2,4 22,5.8 22,8 L22,16 C22,18.2 20.2,20 18,20 L6,20 C3.8,20 2,18.2 2,16 L2,8 C2,5.8 3.8,4 6,4 Z M19.0512207,8.56977929 C19.4459863,8.17501368 19.4563645,7.5382471 19.0746732,7.13082657 C19.0674165,7.12308078 19.0600331,7.11545472 19.0525259,7.1079515 C18.6739824,6.72960768 18.0604039,6.72976962 17.6820601,7.10831319 L12.707,12.086 C12.344,12.449 11.656,12.449 11.293,12.086 L6.31491686,7.10791686 C6.30731792,7.10031792 6.29959292,7.0928461 6.29174506,7.08550451 C5.90148946,6.72042434 5.28916883,6.74083306 4.92408866,7.13108866 C4.54300989,7.5384461 4.55360864,8.17460864 4.94804565,8.56904565 L9.879,13.5 C10.454,14.075 11.227,14.362 12,14.362 C12.773,14.362 13.546,14.075 14.121,13.5 L19.0512207,8.56977929 Z"/>
</svg>

<svg width="24" height="24" fill="none" xmlns="http://www.w3.org/2000/svg"><path fill-rule="evenodd" clip-rule="evenodd" d="M6 4h12c2.2 0 4 1.8 4 4v8c0 2.2-1.8 4-4 4H6c-2.2 0-4-1.8-4-4V8c0-2.2 1.8-4 4-4Zm13.051 4.57a1.035 1.035 0 0 0 .002-1.462.969.969 0 0 0-1.37 0l-4.976 4.978c-.363.363-1.051.363-1.414 0L6.315 7.108a.968.968 0 0 0-1.39.023 1.034 1.034 0 0 0 .023 1.438L9.879 13.5a2.99 2.99 0 0 0 2.121.862 2.99 2.99 0 0 0 2.121-.862l4.93-4.93Z" fill="#000"/></svg>
